SVG_Azure_Grouped/Application/CORS.svg

<?xml version="1.0" encoding="UTF-8" standalone="no"?>
<!DOCTYPE svg PUBLIC "-//W3C//DTD SVG 1.1//EN" "http://www.w3.org/Graphics/SVG/1.1/DTD/svg11.dtd">
<!-- Generated by Microsoft Visio, SVG Export CORS.svg Page-1 -->
<svg xmlns="http://www.w3.org/2000/svg" xmlns:xlink="http://www.w3.org/1999/xlink" xmlns:ev="http://www.w3.org/2001/xml-events"
		width="1.74304in" height="1.73162in" viewBox="0 0 125.499 124.677" xml:space="preserve" color-interpolation-filters="sRGB"
		class="st4">
	<style type="text/css">
	<![CDATA[
		.st1 {fill:url(#grad0-6);stroke:none;stroke-linecap:butt;stroke-width:31.8538}
		.st2 {fill:#ffffff;fill-opacity:0.7;stroke:none;stroke-linecap:butt;stroke-width:31.8538}
		.st3 {fill:#ffffff;stroke:none;stroke-linecap:butt;stroke-width:31.8538}
		.st4 {fill:none;fill-rule:evenodd;font-size:12px;overflow:visible;stroke-linecap:square;stroke-miterlimit:3}
	]]>
	</style>

	<defs id="Patterns_And_Gradients">
		<linearGradient id="grad0-6" x1="0" y1="0" x2="1" y2="0" gradientTransform="rotate(90 0.5 0.5)">
			<stop offset="0" stop-color="#86d633" stop-opacity="1"/>
			<stop offset="0.125" stop-color="#81ce31" stop-opacity="1"/>
			<stop offset="1" stop-color="#5e9624" stop-opacity="1"/>
		</linearGradient>
	</defs>
	<g>
		<title>Page-1</title>
		<g id="group13912-1" transform="translate(33.4786,-36.1298)">
			<title>CORS.13912</title>
			<g id="group13913-2">
				<title>g10</title>
				<g id="shape13914-3" transform="translate(0,-2.36012)">
					<title>path2</title>
					<path d="M10.38 124.68 A30.6413 30.2877 0 0 1 29.04 70.34 A30.3349 29.9848 0 0 1 47.62 76.58 A30.6413 30.2877
								 0 1 1 10.38 124.68 Z" class="st1"/>
				</g>
				<g id="shape13915-7" transform="translate(3.90577,-19.1479)">
					<title>path4</title>
					<path d="M38.88 90.25 A30.2736 29.9243 -180 0 0 34.16 88.37 A141.689 140.054 0 0 1 9.91 113.54 C9.85 113.59 9.82
								 113.65 9.76 113.71 A43.9941 43.4864 0 0 1 5.96 108.71 a0.636659 0.629311 -180 0 0 -1.13032 0.10769
								 A128.013 126.535 -180 0 0 0 123.56 a0.653682 0.646138 -180 0 0 0.524307 0.794211 A44.0486 43.5403
								 -180 0 0 18.23 123.22 a0.640063 0.632677 -180 0 0 0.238321 -1.09709 C17.31 121.16 15.2 119.35 12.9
								 117.06 A123.498 122.073 -180 0 0 38.88 90.25 Z" class="st2"/>
				</g>
				<g id="shape13916-9" transform="translate(4.49477,-15.746)">
					<title>path6</title>
					<path d="M45.53 102.19 A51.8417 51.2434 0 0 1 40.63 106.56 A52.9039 52.2934 -180 0 0 5.57 90.07 A28.8165 28.4839
								 -180 0 0 0 95.66 C1.25 95.71 2.52 95.79 3.79 95.93 A47.1059 46.5623 0 0 1 34.19 111.22 C32.15 112.57
								 30.05 113.86 27.91 115.1 a0.636659 0.629311 -180 0 0 0.108947 1.14084 A73.3247 72.4785 0 0 1 45.18
								 124.6 a0.643468 0.636042 -180 0 0 1.00095 -0.380279 A72.368 71.5329 -180 0 0 46.63 102.55 a0.636659
								 0.629311 -180 0 0 -1.09628 -0.360087 Z" class="st3"/>
				</g>
				<g id="shape13917-11" transform="translate(3.59936,2.98428E-13)">
					<title>path8</title>
					<path d="M37.59 111.9 a0.680918 0.67306 -180 0 0 -0.493666 -1.00959 C31.65 110.17 24.01 108.43 21.21 107.78 a0.54133
								 0.535083 -180 0 0 -0.619636 0.743732 C21.27 110 22.59 112.75 23.38 114.02 A76.4603 75.5779 0 0 1
								 0 115.19 A31.4448 31.0819 -180 0 0 4.56 120.48 A87.5491 86.5387 -180 0 0 25.63 118.51 A43.1566 42.6586
								 0 0 1 27.82 124.23 a0.653682 0.646138 -180 0 0 1.14054 0.212014 A127.209 125.741 -180 0 0 37.59
								 111.9 Z" class="st2"/>
				</g>
			</g>
		</g>
	</g>
</svg>

<?xml version="1.0" encoding="UTF-8" standalone="no"?>
<!-- Generated by Microsoft Visio, SVG Export CORS.svg Page-1 -->

<svg
   xmlns:dc="http://purl.org/dc/elements/1.1/"
   xmlns:cc="http://creativecommons.org/ns#"
   xmlns:rdf="http://www.w3.org/1999/02/22-rdf-syntax-ns#"
   xmlns:svg="http://www.w3.org/2000/svg"
   xmlns="http://www.w3.org/2000/svg"
   xmlns:sodipodi="http://sodipodi.sourceforge.net/DTD/sodipodi-0.dtd"
   xmlns:inkscape="http://www.inkscape.org/namespaces/inkscape"
   width="0.85602349in"
   height="0.84506941in"
   viewBox="0 0 61.633751 60.845175"
   xml:space="preserve"
   class="st4"
   version="1.1"
   id="svg42"
   sodipodi:docname="CORS.svg"
   style="font-size:12px;overflow:visible;color-interpolation-filters:sRGB;fill:none;fill-rule:evenodd;stroke-linecap:square;stroke-miterlimit:3"
   inkscape:version="0.92.5 (2060ec1f9f, 2020-04-08)"><metadata
   id="metadata46"><rdf:RDF><cc:Work
       rdf:about=""><dc:format>image/svg+xml</dc:format><dc:type
         rdf:resource="http://purl.org/dc/dcmitype/StillImage" /></cc:Work></rdf:RDF></metadata><sodipodi:namedview
   pagecolor="#ffffff"
   bordercolor="#666666"
   borderopacity="1"
   objecttolerance="10"
   gridtolerance="10"
   guidetolerance="10"
   inkscape:pageopacity="0"
   inkscape:pageshadow="2"
   inkscape:window-width="640"
   inkscape:window-height="480"
   id="namedview44"
   showgrid="false"
   inkscape:zoom="1.4196726"
   inkscape:cx="41.213149"
   inkscape:cy="40.475488"
   inkscape:window-x="0"
   inkscape:window-y="0"
   inkscape:window-maximized="0"
   inkscape:current-layer="svg42" />
	<style
   type="text/css"
   id="style2">
	<![CDATA[
		.st1 {fill:url(#grad0-6);stroke:none;stroke-linecap:butt;stroke-width:31.8538}
		.st2 {fill:#ffffff;fill-opacity:0.7;stroke:none;stroke-linecap:butt;stroke-width:31.8538}
		.st3 {fill:#ffffff;stroke:none;stroke-linecap:butt;stroke-width:31.8538}
		.st4 {fill:none;fill-rule:evenodd;font-size:12px;overflow:visible;stroke-linecap:square;stroke-miterlimit:3}
	]]>
	</style>

	<defs
   id="Patterns_And_Gradients">
		<linearGradient
   id="grad0-6"
   x1="-1.6285289"
   y1="70.794368"
   x2="59.609723"
   y2="70.794368"
   gradientTransform="scale(1.0064603,0.99358115)"
   gradientUnits="userSpaceOnUse">
			<stop
   offset="0"
   stop-color="#86d633"
   stop-opacity="1"
   id="stop4" />
			<stop
   offset="0.125"
   stop-color="#81ce31"
   stop-opacity="1"
   id="stop6" />
			<stop
   offset="1"
   stop-color="#5e9624"
   stop-opacity="1"
   id="stop8" />
		</linearGradient>
	</defs>
	<g
   id="g40"
   transform="translate(-31.839669,-31.850029)">
		<title
   id="title12">Page-1</title>
		<g
   id="group14259-1"
   transform="translate(33.4786,-36.1298)">
			<title
   id="title14">CORS.14259</title>
			<g
   id="group14260-2">
				<title
   id="title16">g10</title>
				<g
   id="shape14261-3"
   transform="translate(0,-2.36012)">
					<title
   id="title18">path2</title>
					<path
   d="m 10.38,124.68 a 30.6413,30.2877 0 0 1 18.66,-54.34 30.3349,29.9848 0 0 1 18.58,6.24 30.6413,30.2877 0 1 1 -37.24,48.1 z"
   class="st1"
   id="path20"
   inkscape:connector-curvature="0"
   style="fill:url(#grad0-6);stroke:none;stroke-width:31.85379982;stroke-linecap:butt" />
				</g>
				<g
   id="shape14262-7"
   transform="translate(3.90577,-19.1479)">
					<title
   id="title23">path4</title>
					<path
   d="M 38.88,90.25 A 30.2736,29.9243 -180 0 0 34.16,88.37 141.689,140.054 0 0 1 9.91,113.54 c -0.06,0.05 -0.09,0.11 -0.15,0.17 a 43.9941,43.4864 0 0 1 -3.8,-5 0.636659,0.629311 -180 0 0 -1.13032,0.10769 A 128.013,126.535 -180 0 0 0,123.56 0.653682,0.646138 -180 0 0 0.524307,124.35421 44.0486,43.5403 -180 0 0 18.23,123.22 0.640063,0.632677 -180 0 0 18.468321,122.12291 C 17.31,121.16 15.2,119.35 12.9,117.06 A 123.498,122.073 -180 0 0 38.88,90.25 Z"
   class="st2"
   id="path25"
   inkscape:connector-curvature="0"
   style="fill:#ffffff;fill-opacity:0.7;stroke:none;stroke-width:31.85379982;stroke-linecap:butt" />
				</g>
				<g
   id="shape14263-9"
   transform="translate(4.49477,-15.746)">
					<title
   id="title28">path6</title>
					<path
   d="m 45.53,102.19 a 51.8417,51.2434 0 0 1 -4.9,4.37 A 52.9039,52.2934 -180 0 0 5.57,90.07 28.8165,28.4839 -180 0 0 0,95.66 c 1.25,0.05 2.52,0.13 3.79,0.27 a 47.1059,46.5623 0 0 1 30.4,15.29 c -2.04,1.35 -4.14,2.64 -6.28,3.88 a 0.636659,0.629311 -180 0 0 0.108947,1.14084 A 73.3247,72.4785 0 0 1 45.18,124.6 0.643468,0.636042 -180 0 0 46.18095,124.21972 72.368,71.5329 -180 0 0 46.63,102.55 0.636659,0.629311 -180 0 0 45.53372,102.18991 Z"
   class="st3"
   id="path30"
   inkscape:connector-curvature="0"
   style="fill:#ffffff;stroke:none;stroke-width:31.85379982;stroke-linecap:butt" />
				</g>
				<g
   id="shape14264-11"
   transform="translate(3.59936)">
					<title
   id="title33">path8</title>
					<path
   d="m 37.59,111.9 a 0.680918,0.67306 -180 0 0 -0.493666,-1.00959 C 31.65,110.17 24.01,108.43 21.21,107.78 a 0.54133,0.535083 -180 0 0 -0.619636,0.74373 C 21.27,110 22.59,112.75 23.38,114.02 A 76.4603,75.5779 0 0 1 0,115.19 a 31.4448,31.0819 -180 0 0 4.56,5.29 87.5491,86.5387 -180 0 0 21.07,-1.97 43.1566,42.6586 0 0 1 2.19,5.72 0.653682,0.646138 -180 0 0 1.14054,0.21201 A 127.209,125.741 -180 0 0 37.59,111.9 Z"
   class="st2"
   id="path35"
   inkscape:connector-curvature="0"
   style="fill:#ffffff;fill-opacity:0.7;stroke:none;stroke-width:31.85379982;stroke-linecap:butt" />
				</g>
			</g>
		</g>
	</g>
</svg>
